docs/assets/images/money-circle.svg

<svg xmlns="http://www.w3.org/2000/svg" xml:space="preserve" fill="#03d47c" viewBox="0 0 20 20"><path d="M8.8 7.8c0 .4.1.6.4.8.1 0 .4.1.6.2v-2c-.4 0-.7.1-.8.2s-.2.4-.2.8m1.6 2.7v2.2c.2 0 .5-.1.6-.2.2-.2.4-.5.4-.9s-.2-.6-.4-.8c-.1 0-.4-.2-.6-.3"/><path d="M10 1.1C5.1 1.1 1.2 5 1.2 9.9s3.9 8.8 8.8 8.8 8.8-3.9 8.8-8.8c0-4.8-3.9-8.8-8.8-8.8m1.9 12.4c-.4.2-.9.4-1.5.5v1.1h-.6V14c-.8-.1-1.2-.2-1.6-.5-.6-.5-1-1.2-1-2.2h1.5c.1.5.1.8.2 1s.4.4.9.5v-2.5l-.5-.1c-.8-.3-1.3-.6-1.5-1s-.4-.8-.4-1.3c0-.4 0-.6.1-1 .1-.3.3-.5.5-.8s.6-.5.9-.5c.2-.1.5-.1.9-.1v-.7h.5v.8c.6 0 1.1.2 1.5.5.6.4 1 1 1 2h-1.5c0-.4-.1-.6-.1-.8-.1-.4-.4-.5-.8-.5v2.1c.9.4 1.5.6 1.8.9.5.4.8 1 .8 1.6-.1 1-.5 1.6-1.1 2.1"/></svg>

<svg xmlns="http://www.w3.org/2000/svg" xmlns:xlink="http://www.w3.org/1999/xlink" id="Layer_1" x="0" y="0" fill="#03D47C" version="1.1" viewBox="0 0 20 20" style="enable-background:new 0 0 20 20" xml:space="preserve"><path d="M8.8,7.8c0,0.4,0.1,0.6,0.4,0.8c0.1,0,0.4,0.1,0.6,0.2v-2C9.4,6.8,9.1,6.9,9,7S8.8,7.4,8.8,7.8z"/><path d="M10.4,10.5v2.2c0.2,0,0.5-0.1,0.6-0.2c0.2-0.2,0.4-0.5,0.4-0.9S11.2,11,11,10.8C10.9,10.8,10.6,10.6,10.4,10.5z"/><path d="M10,1.1C5.1,1.1,1.2,5,1.2,9.9s3.9,8.8,8.8,8.8s8.8-3.9,8.8-8.8C18.8,5.1,14.9,1.1,10,1.1z M11.9,13.5	c-0.4,0.2-0.9,0.4-1.5,0.5v1.1H9.8V14c-0.8-0.1-1.2-0.2-1.6-0.5c-0.6-0.5-1-1.2-1-2.2h1.5c0.1,0.5,0.1,0.8,0.2,1s0.4,0.4,0.9,0.5	v-2.5l-0.5-0.1C8.5,9.9,8,9.6,7.8,9.2S7.4,8.4,7.4,7.9c0-0.4,0-0.6,0.1-1C7.6,6.6,7.8,6.4,8,6.1s0.6-0.5,0.9-0.5	c0.2-0.1,0.5-0.1,0.9-0.1V4.8h0.5v0.8c0.6,0,1.1,0.2,1.5,0.5c0.6,0.4,1,1,1,2h-1.5c0-0.4-0.1-0.6-0.1-0.8c-0.1-0.4-0.4-0.5-0.8-0.5	v2.1c0.9,0.4,1.5,0.6,1.8,0.9c0.5,0.4,0.8,1,0.8,1.6C12.9,12.4,12.5,13,11.9,13.5z"/></svg>
